X: 2403
M: C
L: 1/8
K: G
d>^cd>e d>BA>G | c>de>f g2f>e |\
d>d^c>d e>dB>G | A2d2 D2B>c |\
d>^cd>e d>BA>G | c>de>f g2f>e |\
e2B>d d>cAF | G2[g2B2] [g2B2] :|
|: A>B |\
c>cc>c c2d>c | c>BB>B B2G>B |\
d>d^c>d e>dB>G | A2d2D2 B>c |\
d>^cd>e d>BA>G | c>de>f g2fe |\
d2B>d d>cAF | G2[g2B2] [g2B2] :|


